X:1
T:Berceuse from Dolly, Op. 56
T:Gabriel Faure (1845-1924) 
%%score 1 2
L:1/8
Q:1/4=60
M:2/4
K:E
V:1 treble nm="flute"
V:2 treble-8 nm="guitar"
V:1
 z4 | z4 | b2 b2- | bg ab | ge fg | e2 B z | b2 b2- | bg ab | ge e'd' | c'2 b z | f'2 f'2- | %11
 f'd' e'f' | d'b c'd' | b2 f z | f'2 f'2- | f'g' e'c' | e'f' d'b | d'2 c'2 | b2 b2- | bg ab | %20
 ge fg | e2 B z | b2 b2- | bg ab | ge e'd' | c'2 b z | e'2 e'2- | e'c' ba | e'2 e'2- | e'c' ba | %30
 b2 b2- | bg fe | g2 f2 | e2- e z |[K:C] e2 e2- | ec ^^ce | e2 ^B2- | B^^F Ac | B^^c ^^f2- | %39
 fe ^^f2- | f^A ^^c^^f | ^e=e ^^ce | ^e2 e2- | ed =ef | ^e2 ^^c2- | cA B^^c | ^Be a2- | af a2- | %48
 ac ea | ^^f^f ef | ^^f2 f2- | fe ^f^^f | ^^f2 e2- | eB ^ce | ^^c^f b2- | b^^f b2- | b^f ^d'^c' | %57
 ba ^f^d |[K:E] B2 B2- | BG AB | GE FG | E2 z2 | B2 B2- | BG AB | GE FG | E2 z2 | e2 e2- | ec =de | %68
 cA Bc | Ae dc | B2 c2 | ^^c2 d2 | b2 b2- | bg ab | ge fg | e2 B z | b2 b2- | bg ab | ge fg | %79
 e2 B z | e2 B z | e2 B z | e2 z2 |] %83
V:2
 [E,-G]/[E,B]/[B,-e]/[B,c]/ [FA-d-][B,Ad] | [E,-G]/[E,B]/[B,-e]/[B,c]/ [FA-d-][B,Ad] | %2
 [E,-G]/[E,B]/[B,-e]/[B,c]/ [FA-d-][B,Ad] | [E,-G]/[E,B]/[B,-e]/[B,c]/ [FA-d-][B,Ad] | %4
 [E,-G]/[E,B]/[B,-e]/[B,c]/ [FA-d-][B,Ad] | [E,-G]/[E,B]/[B,-e]/[B,c]/ [FA-d-][B,Ad] | %6
 [E,-G]/[E,B]/[B,-e]/[B,c]/ [FA-d-][B,Ad] | [E,-G]/[E,B]/[B,-e]/[B,c]/ [FA-d-][B,Ad] | %8
 [E,-G]/[E,B]/[B,-e]/[B,B]/ [CB-e-g-][CBeg] | [F,-^A]/[F,e]/[F-f]/[Fe]/ [B,F-B-d-][B,FBd] | %10
 [B,-d]/[B,f]/[F-b]/[Fg]/ [ce-^a-][Fea] | [B,-d]/[B,f]/[F-b]/[Fg]/ [ce-^a-][Fea] | %12
 [B,-d]/[B,f]/[F-b]/[Fg]/ [ce-^a-][Fea] | [B,-d]/[B,f]/[F-b]/[Fg]/ [ce-^a-][Fea] | %14
 [B,-d]/[B,f]/[F-b]/[Ff]/ [A,f-c'-][Afc'] | [G,-f]/[G,g]/[D-=c']/[Dg]/ [Ce-g-^c'-][cegc'] | %16
 [^A,-e]/[A,f]/[F-c']/[Ff]/ [B,d-f-b-][Bdfb] | [D-B]/[Dd]/[D-f]/[Dd]/ [Ec-g-][Ecg] | %18
 [D-g]/[DA]/[B,-B]/[B,A]/ [Af-][B,f] | [E,-Ge]/[E,B]/[B,-e]/[B,c]/ [FA-d-][B,Ad] | %20
 [E,-G]/[E,B]/[B,-e]/[B,c]/ [FA-d-][B,Ad] | [E,-G]/[E,B]/[B,-e]/[B,c]/ [FA-d-][B,Ad] | %22
 [E,-G]/[E,B]/[B,-e]/[B,c]/ [FA-d-][B,Ad] | [E,-G]/[E,B]/[B,-e]/[B,c]/ [FA-d-][B,Ad] | %24
 [E,-G]/[E,B]/[B,-e]/[B,B]/ [CB-e-g-][CBeg] | [F,-^A]/[F,e]/[F-f]/[Fe]/ [B,F-B-d-][B,FBd] | %26
 [G,-B]/[G,d]/[E-f]/[Ed]/ [G^^c-e-][Ece] | [A,-c]/[A,=f]/[E-g]/[Ef]/ [Ae-^f-][Eef] | %28
 [B,-^^c]/[B,^^f]/[E-a]/[Ef]/ [Bc-g-][Ecg] | [C-e]/[Cg]/[E-b]/[Eg]/ [ce-a-][Eea] | %30
 [D-f]/[D^a]/[B-c']/[Ba]/ [d=a-b-][Bab] | E/-[Eg]/[B-b]/[Bg]/ [Ce-g-c'-][cegc'] | %32
 [A,-c]/[A,g]/[A-c']/[Ag]/ [B,d-a-b-][Bdab] | E,/-[E,-G]/[E,-e]/[E,-B]/ [E,-g]/[E,e]/B/G/ | %34
[K:C] ^B,-[B,-^^F]/[B,-F]/ [B,-e]/[B,-^B]/[B,-^^f]/[B,e]/ | %35
 A,-[A,-A]/[A,-A]/ [A,-e]/[A,-c]/[A,-a]/[A,e]/ | %36
 ^B,-[B,-^^F]/[B,-F]/ [B,-e]/[B,-^B]/[B,-^^f]/[B,e]/ | %37
 E-[E-^^F]/[E-F]/ [E-e]/[E-^B]/[E-^^f]/[Ee]/ | ^^F-[F-B]/[F-B]/ [F-^^f]/[F-^^c]/[F-b]/[Ff]/ | %39
 E-[E-B]/[E-B]/ [E-^^f]/[E-e]/[E-b]/[Ef]/ | E,-[E,-^A]/[E,-A]/ [E,-^^f]/[E,-^^c]/[E,-^a]/[E,f]/ | %41
 A,-[A,-A]/[A,-A]/ [A,-^^f]/[A,-^c]/[A,-a]/[A,f]/ | ^^C-[C-A]/[C-A]/ [C-^e]/[C-^^c]/[C-a]/[Ce]/ | %43
 ^A,-[A,-^A]/[A,-A]/ [A,-^e]/[A,-^^c]/[A,-^a]/[A,e]/ | %44
 ^^C-[C-A]/[C-A]/ [C-^e]/[C-^^c]/[C-a]/[Cf]/ | F-[F-A]/[F-A]/ [F-^e]/[F-d]/[F-a]/[Ff]/ | %46
 A,-[A,-A]/[A,-A]/ [A,-e]/[A,-c]/[A,-a]/[A,e]/ | ^^C-[C-A]/[C-A]/ [C-^e]/[C-^^c]/[C-a]/[Cf]/ | %48
 A,-[A,-A]/[A,-A]/ [A,-e]/[A,-c]/[A,-a]/[A,e]/ | B,-[B,-A]/[B,-A]/ [B,-^d]/[B,-B]/[B,-a]/[B,d]/ | %50
 E-[E-B]/[E-B]/ [E-^^f]/[E-e]/[E-b]/[Ef]/ | ^B,-[B,-^B]/[B,-B]/ [B,-^^f]/[B,-e]/[B,-^b]/[B,f]/ | %52
 E-[E-B]/[E-B]/ [E-^^f]/[E-e]/[E-b]/[Ef]/ | ^^F-[F-B]/[F-B]/ [F-^^f]/[F-e]/[F-b]/[Ff]/ | %54
 B,-[B,-B]/[B,-B]/ [B,-^f]/[B,-d]/[B,-b]/[B,f]/ | E-[E-B]/[E-B]/ [E-e]/[E-^c]/[E-g]/[Ee]/ | %56
 B,/-[B,B]/[^F-^f]/[F^d]/ [B-b]/[Bf]/[^c-a]/[ce]/ | %57
 [B-^g]/[B^d]/[A-^f]/[A^c]/ [^F-d]/[FA]/[^D-B]/[DF]/ | %58
[K:E] [E,-G]/[E,B]/[B,-e]/[B,c]/ [FA-d-][B,Ad] | [E,-G]/[E,B]/[B,-e]/[B,c]/ [FA-d-][B,Ad] | %60
 [E,-G]/[E,B]/[B,-e]/[B,c]/ [FA-d-][B,Ad] | [E,-G]/[E,B]/[B,-e]/[B,c]/ [FA-d-][B,Ad] | %62
 [E,-G]/[E,B]/[B,-e]/[B,c]/ [FA-d-][B,Ad] | [E,-G]/[E,B]/[B,-e]/[B,c]/ [FA-d-][B,Ad] | %64
 [E,-G]/[E,B]/[B,-e]/[B,c]/ [FA-d-][B,Ad] | [E,-G]/[E,B]/[B,-e]/[B,c]/ [E=d-e-][B,de] | %66
 A,/-[A,e]/[E-a]/[Ef]/ [B=d-g-][Edg] | A,/-[A,e]/[E-a]/[Ef]/ [B=d-g-][Edg] | %68
 A,/-[A,e]/[E-a]/[Ef]/ [B=d-g-][Edg] | A,/-[A,e]/[E-a]/[Ee]/ [^A,e-^^f-][^Aef] | %70
 z/ g/[B-b]/[Bg]/ [gc']-[B,gc'] | z/ a/[B-^^c']/[Ba]/ [ad']-[B,ad'] | %72
 E,/-[E,B]/[B,-e]/[B,c]/ [FA-d-][B,Ad] | [E,-G]/[E,B]/[B,-e]/[B,c]/ [FA-d-][B,Ad] | %74
 [E,-G]/[E,B]/[B,-e]/[B,c]/ [FA-d-][B,Ad] | [E,-G]/[E,B]/[B,-e]/[B,c]/ [FA-d-][B,Ad] | %76
 [E,-G]/[E,B]/[B,-e]/[B,c]/ [FA-d-][B,Ad] | [E,b-]/[Bb-]/[B,eb-]/[cb]/ [FAdb-][B,b-] | %78
 [E,b-]/[Bb]/[B,eg-]/[cg]/ [F-d-a][Fdb] | [E,g-]/[Bg]/[B,e-]/[ce]/ [F-d-f][Fdg] | %80
 E,/B/[B,e-]/[ce]/ [F-d-f][Fdg] | E,/B/e/-[ce]/ [F-d-f][Fdg] | [E,B,EGBe]2 z2 |] %83

